X:867
T:The Rose in June
C:Thompson, 1802.  Counter-melody: Colin Hume, 2020.
S:Colin Hume's website,  colinhume.com  - chords can also be printed below the stave.
Q:1/8=128
M:3/8
R:Waltz
L:1/8
B:Chas & Sam Thompson "Twenty Four Country Dances for the Year 1802", London, page 9
F:https://folkopedia.info/index.php/File:Thompson_24_1802.PDF
K:D
P:A
V:1
%%MIDI control 10 30    Mostly Right speaker
%%MIDI program 73     Flute
%%MIDI bassprog 46    Orchestral Harp
%%MIDI chordprog 46   Orchestral Harp
%%MIDI beat 100 95 80
%%MIDI gchord fzczcz
%%MIDI ratio 3 1
A | "D"dAA | "/"fdd | "A"age | "/"e>fg | "D"afd | "Bm"d>cd | "A"ecA | "A7"A2A |
"D"dAA | "A"e>fg | "D"fad | "A"ede | "Bm"ddd | "D/A"faf | "G"ddd | "D"d2z |
V:2
%%MIDI program 68     Oboe
%%MIDI control 10 100  Mostly Left speaker
z | F3 | A2D | E3 | A3 | dA2 | BF2 | AGE | CB,A, |
DEF | GFE | DEF | GFE | FB2 | Ad2 | BAG | F2E |
P:B
V:1
"D"fff | "A"ecA | "E7"{Bc}dB^G | "A"Ace | "D"fff | "A"ecA | "E7"{Bc}dB^G | "A"A2"A7"A |
"D"dAA | "A"e>fg | "D"fad | "A"ede | "Bm"ddd | "D/A"faf | "G"ddd | "D"d2 |]
V:2
D3 | C3 | B,3 | A,3 | D3 | C3 | B,3 | A,AG |
FDF/G/ | AGE | AFA/B/ | cBA | BAF | AD2 | G,A,B, | D2 |]

